!!!COM:	Martini, Johannes
!!!CDT:	~1440///-~1497//
!!!OTL:	Benedictus dominus deus
!!!AGN:	Motet
!!!SCT:	Mar2010
!!!SCA:	Mar2010
!!!voices:	2
**kern	**kern
*staff2	*staff1
*Ivox	*Ivox
*I"Tenor	*I"Superius
*I'T	*I'S
*>[A,B,C,D,E,F,G,H,I,J,K,L,M,N,O,P,Q,R,S,T]	*>[A,B,C,D,E,F,G,H,I,J,K,L,M,N,O,P,Q,R,S,T]
*>A	*>A
*clefGv2	*clefG2
*k[]	*k[]
*M2/1	*M2/1
*met(C)	*met(C)
!!section: Et digitos meos
!!!OMD: Et digitos meos
=1-	=1-
!!LO:TX:Z=8:t=Choir 1
1A	1a
2c\	2a/
2c\	2a/
=2	=2
1c	1a
1A	1f
=3	=3
2B\	2g/
1c	1a
2A/	[2f/
=4	=4
1G	2f/]
.	2e/
1Fl	1fl
=5||	=5||
*>B	*>B
*k[b-]	*
!!section: Misericordia
!!!OMD: Misericordia
!!LO:TX:Z=8:t=Choir 2
1F	1f
1B-	1g
=6	=6
1A	1a
2c\	2a/
2c\	2a/
=7	=7
2c\	2a/
2c\	2a/
1A	1a
=8	=8
1c	1a
2B-\	2g/
2c\	2a/
=9	=9
2d\	2b-i\
2A/	1a
1B-	.
.	2g/
=10	=10
1A	1a
1r	1r
=11	=11
2c\	2a/
2c\	2a/
2c\	2a/
2c\	2a/
=12	=12
1c	1a
2c\	2a/
2B-\	2g/
=13	=13
2A/	2f/
1B-	1g
2A/	[2f/
=14	=14
1G	2f/]
.	2e/
1Fl	1fl
=15||	=15||
*>C	*>C
*k[]	*
!!section: Protector meus
!!!OMD: Protector meus
!!LO:TX:Z=8:t=Choir 1
1A	1a
2c\	2a/
2c\	2a/
=16	=16
1c	1a
1c	1a
=17	=17
2c\	2a/
2c\	2a/
1c	1a
=18	=18
2c\	2a/
2c\	2a/
1c	1a
=19	=19
1c	1a
1r	1r
=20	=20
1A	1a
2c\	2a/
2c\	2a/
=21	=21
2c\	2a/
2c\	2a/
1c	1a
=22	=22
2.A/	2.f/
4G/	4e/
2A/	2f/
[2B-i\	[2g/
=23	=23
2B-\]	2g/]
2A/	1f
1G	.
.	2e/
=24	=24
0Fl	0fl
=25||	=25||
*>D	*>D
*k[b-]	*
!!LO:TX:Z=8:t=Choir 2
!!section: Domine, quid
!!!OMD: Domine, quid
1A	1f
1B-	1g
=26	=26
1c	1a
2c\	2a/
2c\	2a/
=27	=27
1c	1a
1A	1a
=28	=28
2c\	2a/
2c\	2a/
2c\	2a/
2B-\	2g/
=29	=29
2c\	2a/
1d	1b-i
2c\	[2a/
=30	=30
1B-	2a/]
.	2g/
1A	1a
=31	=31
1r	1r
2c\	2a/
2c\	2a/
=32	=32
2c\	2a/
2c\	2a/
2c\	2a/
2c\	2a/
=33	=33
1A	1a
2c\	2a/
2B-\	2g/
=34	=34
2A/	2f/
1B-	1g
2A/	[2f/
=35	=35
1G	2f/]
.	2e/
1Fl	1fl
=36||	=36||
*>E	*>E
*k[]	*
!!section: Homo vanitati
!!!OMD: Homo vanitati
!!LO:TX:Z=8:t=Choir 1
1A	1a
1c	1a
=37	=37
2c\	2a/
2c\	2a/
1c	1a
=38	=38
1c	1a
1B	1g
=39	=39
2c\	2a/
1d	1b-i
2c\	[2a/
=40	=40
1B-i	2a/]
.	2g/
1A	1a
=41	=41
1r	1r
1c	1a
=42	=42
2c\	2a/
2c\	2a/
1c	1a
=43	=43
1c	1a
2A/	2f/
2B\	2g/
=44	=44
2c\	2a/
1d	1b-i
4c\	4a/
4B-i\	4g/
=45	=45
2A/	2f/
1B-i	1g
2A/	[2f/
=46	=46
1G	2f/]
.	2e/
1Fl	1fl
=47||	=47||
*>F	*>F
*k[b-]	*
!!section: Domine, inclina
!!!OMD: Domine, inclina
!!LO:TX:Z=8:t=Choir 2
1A	1f
1B-	1g
=48	=48
1c	1a
2c\	2a/
2c\	2a/
=49	=49
2c\	2a/
2c\	2a/
1c	1a
=50	=50
2B-\	2g/
2c\	2a/
2d\	2b-i\
2A/	[2a/
=51	=51
1B-	2a/]
.	2g/
1A	1a
=52	=52
1r	1r
2c\	2a/
2c\	2a/
=53	=53
1c	1a
2c\	2a/
2B-\	2g/
=54	=54
2A/	2f/
1B-	1g
2A/	[2f/
=55	=55
1G	2f/]
.	2e/
1Fl	1fl
=56||	=56||
*>G	*>G
*k[]	*
!!LO:TX:Z=8:t=Choir 1
!!section: Fulgura coruscationem
!!!OMD: Fulgura coruscationem
2c\	2a/
2c\	2a/
1c	1a
=57	=57
1c	1a
2c\	2a/
2c\	2a/
=58	=58
2c\	2a/
2c\	2a/
1c	1a
=59	=59
2B\	2g/
2c\	2a/
2d\	2b\
[2e\	[2cc\
=60	=60
2e\]	2cc\]
4d\	4b\
4c\	4a/
2B\	2g/
2c\	[2a/
=61	=61
1B	2a/]
.	2g#i/
1A	1a
=62	=62
1r	1r
2c\	2a/
2c\	2a/
=63	=63
2c\	2a/
2c\	2a/
1c	1a
=64	=64
2c\	2a/
2c\	2a/
1c	1a
=65	=65
1B	1g
2c\	2a/
[2d\	[2b-i\
=66	=66
2d\]	2b-\]
4c\	4a/
4B-i\	4g/
2A/	2f/
[2B-i\	[2g/
=67	=67
2B-\]	2g/]
2A/	1f
1G	.
.	2e/
=68	=68
0Fl	0fl
=69||	=69||
*>H	*>H
*k[b-]	*
!!section: Emitte manum
!!!OMD: Emitte manum
!!LO:TX:Z=8:t=Choir 2
1A	1f
1B-	1g
=70	=70
1c	1a
2c\	2a/
2c\	2a/
=71	=71
1c	1a
2d\	2b-i\
[2c\	[2a/
=72	=72
2c\]	2a/]
2B-\	1g
1A	.
.	2f#i/
=73	=73
1G	1g
1c	2r
.	2a/
=74	=74
2c\	2a/
2c\	2a/
1A	1a
=75	=75
2c\	2a/
2c\	2a/
2c\	2a/
2c\	2a/
=76	=76
1c	1a
2B-\	2g/
2c\	2a/
=77	=77
2d\	2b-i\
2A/	1a
1B-	.
.	2g/
=78	=78
1A	1a
1r	1r
=79	=79
1c	1a
2c\	2a/
2c\	2a/
=80	=80
2c\	2a/
2c\	2a/
2c\	2a/
2c\	2a/
=81	=81
1A	1a
2B-\	2g/
[2A/	[2f/
=82	=82
4A/]	4f/]
4G/	4e/
2F/	2d/
2E/	2c/
2F/	[2f/
=83	=83
1G	2f/]
.	2e/
1Fl	1fl
=84||	=84||
*>I	*>I
*k[]	*
!!LO:TX:Z=8:t=Choir 1
!!section: Quorum os
!!!OMD: Quorum os
2A/	2a/
2A/	2a/
2c\	2a/
2c\	2a/
=85	=85
2c\	2a/
2c\	2a/
1A	1a
=86	=86
2c\	2a/
2.d\	2.b-i\
4c\	4a/
4B-i\	4g/
4A/	4f/
=87	=87
1B-i	1g
1A	1a
=88	=88
1r	1r
2c\	2a/
2c\	2a/
=89	=89
2c\	2a/
2c\	2a/
2c\	2a/
2c\	2a/
=90	=90
1c	1a
1B	1g
=91	=91
2c\	2a/
1d	1b-i
4c\	4a/
4B-i\	4g/
=92	=92
2A/	2f/
1B-i	1g
2A/	[2f/
=93	=93
1G	2f/]
.	2e/
1Fl	1fl
=94||	=94||
*>J	*>J
*k[b-]	*
!	!LO:TX:Y=0:t=Choir 2
!!section: Deus, canticum
!!!OMD: Deus, canticum
1A	1f
1B-	1g
=95	=95
2c\	2a/
2c\	2a/
2c\	2a/
2c\	2a/
=96	=96
1A	1a
2c\	2a/
2c\	2a/
=97	=97
2c\	2a/
2c\	2a/
1A	1a
=98	=98
1r	1r
2c\	2a/
2c\	2a/
=99	=99
2c\	2a/
2c\	2a/
1c	1a
=100	=100
2B-\	2g/
2A/	2f/
1B-	1g
=101	=101
2c\	2a/
1B-	1g
2A/	[2f/
=102	=102
1G	2f/]
.	2e/
1Fl	1fl
=103||	=103||
*>K	*>K
*k[]	*
!!LO:TX:Z=8:t=Choir 1
!!section: Qui das salutem
!!!OMD: Qui das salutem
1A	1a
1c	1a
=104	=104
1c	1a
2c\	2a/
2c\	2a/
=105	=105
2c\	2a/
2c\	2a/
1A	1a
=106	=106
2r	2r
2c\	2a/
2c\	2a/
2c\	2a/
=107	=107
2c\	2a/
2c\	2a/
1c	1a
=108	=108
1A	1a
2c\	2a/
[2d\	[2b-i\
=109	=109
2d\]	2b-\]
2c\	1a
1B-i	.
.	2g/
=110	=110
1A	1a
1r	1r
=111	=111
1c	1a
2c\	2a/
2c\	2a/
=112	=112
1c	1a
1B	1g
=113	=113
2c\	2a/
1d	1b-i
4c\	4a/
4B-i\	4g/
=114	=114
2A/	2f/
1B-i	1g
2A/	[2f/
=115	=115
1G	2f/]
.	2e/
1Fl	1fl
=116||	=116||
*>L	*>L
*k[b-]	*
!!section: Et erue me
!!!OMD: Et erue me
!!LO:TX:Z=8:t=Choir 2
2c\	2a/
2c\	2a/
2c\	2a/
2c\	2a/
=117	=117
1c	1a
2c\	2a/
2c\	2a/
=118	=118
1A	1a
2c\	2a/
2c\	2a/
=119	=119
2c\	2a/
2B-\	2g/
2c\	2a/
[2d\	[2b-i\
=120	=120
2d\]	2b-\]
2c\	1a
1B-	.
.	2g/
=121	=121
1A	1a
1r	1r
=122	=122
2c\	2a/
2c\	2a/
2c\	2a/
2c\	2a/
=123	=123
2c\	2a/
2c\	2a/
1c	1a
=124	=124
2c\	2a/
2B-\	1g
1A	.
.	2f#i/
=125	=125
1G	1g
1c	2r
.	[2a/
=126	=126
1c	2a/]
.	2a/
2c\	2a/
2c\	2a/
=127	=127
2c\	2a/
2c\	2a/
1A	1a
=128	=128
2B-\	2g/
2A/	2f/
2G/	2e/
[2A/	[2f/
=129	=129
2A/]	2f/]
4G/	4e/
4F/	4d/
2E/	2c/
2F/	[2f/
=130	=130
1G	2f/]
.	2e/
1Fl	1fl
=131||	=131||
*>M	*>M
*k[]	*
!!section: Quorum filii
!!!OMD: Quorum filii
!!LO:TX:Z=8:t=Choir 1
2c\	2a/
2c\	2a/
2c\	2a/
2c\	2a/
=132	=132
1A	1a
2c\	2a/
2c\	2a/
=133	=133
2c\	2a/
2c\	2a/
1c	1a
=134	=134
2c\	2a/
1d	1b-i
2c\	[2a/
=135	=135
1B-i	2a/]
.	2g/
1A	1a
=136	=136
1r	1r
1A	1a
=137	=137
2c\	2a/
2B\	2g/
2A/	2f/
[2B-i\	[2g/
=138	=138
2B-\]	2g/]
2A/	1f
1G	.
.	2e/
=139	=139
0Fl	0fl
=140||	=140||
*>N	*>N
*k[b-]	*
!!section: Filie eorum
!!!OMD: Filie eorum
!!LO:TX:Z=8:t=Choir 2
1c	1a
2c\	2a/
2c\	2a/
=141	=141
2c\	2a/
2c\	2a/
1A	1a
=142	=142
2c\	2a/
1d	1b-i
2c\	[2a/
=143	=143
1B-	2a/]
.	2g/
1A	1a
=144	=144
1r	1r
2c\	2a/
2c\	2a/
=145	=145
2c\	2a/
2c\	2a/
1c	1a
=146	=146
1B-	1g
2A/	2f/
2G/	2e/
=147	=147
2A/	2f/
1B-	1g
2A/	[2f/
=148	=148
1G	2f/]
.	2e/
1Fl	1fl
=149||	=149||
*>O	*>O
*k[]	*
!!section: Promptuaria
!!!OMD: Promptuaria
!!LO:TX:Z=8:t=Choir 1
1A	1a
1c	1a
=150	=150
2c\	2a/
2c\	2a/
1A	1a
=151	=151
1c	1a
2c\	2a/
[2d\	[2b-i\
=152	=152
2d\]	2b-\]
2c\	1a
1B-i	.
.	2g/
=153	=153
1A	1a
1r	1r
=154	=154
2c\	2a/
2c\	2a/
2c\	2a/
2c\	2a/
=155	=155
1c	1a
2B-i\	2g/
2G/	2e/
=156	=156
2A/	2f/
1B-i	1g
2A/	[2f/
=157	=157
1G	2f/]
.	2e/
1Fl	1fl
=158||	=158||
*>P	*>P
*k[b-]	*
!!LO:TX:Z=8:t=Choir 2
!!section: Oves eorum fetose
!!!OMD: Oves eorum fetose
1c	1a
2c\	2a/
2c\	2a/
=159	=159
2c\	2a/
2c\	2a/
2c\	2a/
2c\	2a/
=160	=160
1A	1a
2c\	2a/
2c\	2a/
=161	=161
1c	1a
1c	1a
=162	=162
2c\	2a/
2c\	2a/
2c\	2a/
[2d\	[2b-i\
=163	=163
2d\]	2b-\]
2c\	1a
1B-	.
.	2g/
=164	=164
1A	1a
1r	1r
=165	=165
2c\	2a/
2c\	2a/
2c\	2a/
[2B-\	[2g/
=166	=166
2B-\]	2g/]
2A/	1f
1G	.
.	2e/
=167	=167
0Fl	0fl
=168||	=168||
*>Q	*>Q
*k[]	*
!!section: Non est ruina
!!!OMD: Non est ruina
!!LO:TX:Z=8:t=Choir 1
1A	1a
1c	1a
=169	=169
2c\	2a/
2c\	2a/
2c\	2a/
2c\	2a/
=170	=170
2c\	2a/
2c\	2a/
1A	1a
=171	=171
2c\	2a/
1d	1b-i
2c\	[2a/
=172	=172
1B-i	2a/]
.	2g/
1A	1a
=173	=173
1r	1r
2c\	2a/
2c\	2a/
=174	=174
1c	1a
1c	1a
=175	=175
2B-i\	2g/
2G/	2e/
2A/	2f/
[2B-i\	[2g/
=176	=176
2B-\]	2g/]
2A/	1f
1G	.
.	2e/
=177	=177
0Fl	0fl
=178||	=178||
*>R	*>R
*k[b-]	*
!!section: Beatum dixerunt
!!!OMD: Beatum dixerunt
!!LO:TX:Z=8:t=Choir 2
1c	1a
2c\	2a/
2c\	2a/
=179	=179
2c\	2a/
2c\	2a/
1A	1a
=180	=180
2c\	2a/
2c\	2a/
2c\	2a/
2c\	2a/
=181	=181
1c	1a
1A	1a
=182	=182
1r	1r
1c	1a
=183	=183
2c\	2a/
2c\	2a/
2c\	2a/
2c\	2a/
=184	=184
1c	1a
1B-	1g
=185	=185
2A/	2f/
2B-\	2g/
2c\	2a/
2c\	2a/
=186	=186
1c	1a
2c\	2a/
[2B-\	[2g/
=187	=187
2B-\]	2g/]
2A/	1f
1G	.
.	2e/
=188	=188
0Fl	0fl
=189||	=189||
*>S	*>S
*k[]	*
!!section: Gloria Patri
!!!OMD: Gloria Patri
!!LO:TX:Z=8:t=Choir 1
1A	1a
2c\	2a/
2c\	2a/
=190	=190
1c	1a
2c\	2a/
[2d\	[2b-i\
=191	=191
2d\]	2b-\]
2c\	1a
1B-i	.
.	2g/
=192	=192
1A	1a
1r	1r
=193	=193
1c	1a
2c\	2a/
2c\	2a/
=194	=194
1c	1a
2c\	2a/
[2B-i\	[2g/
=195	=195
2B-\]	2g/]
2A/	1f
1G	.
.	2e/
=196	=196
0Fl	0fl
=197||	=197||
*>T	*>T
*k[b-]	*
!!section: Sicut erat
!!!OMD: Sicut erat
!!LO:TX:Z=8:t=Choir 2
2c\	2a/
2c\	2a/
2c\	2a/
2c\	2a/
=198	=198
2c\	2a/
2c\	2a/
2c\	2a/
2c\	2a/
=199	=199
1A	1a
1B-	1g
=200	=200
2A/	2f/
1d	1b-i
2c\	[2a/
=201	=201
1B-	2a/]
.	2g/
1A	1a
=202	=202
1r	1r
2c\	2a/
2c\	2a/
=203	=203
2c\	2a/
2c\	2a/
1c	1a
=204	=204
2c\	2a/
2B-\	2g/
2A/	2f/
[2B-\	[2g/
=205	=205
2B-\]	2g/]
2A/	1f
1G	.
.	2e/
=206	=206
0Fl	0fl
==	==
*-	*-
!!!RDF**kern: l=long note in original notation
!!!RDF**kern: i=editorial accidental
!!!ENC:	Chris Gage 12-04-2013
!!!END:	2014/10/09/
!!!EED:	Jesse Rodin
!!!EEV:	2014/10/16/
!!!ONB:	Translated from MusicXML and edited on 2014/10/16/ by Craig Sapp
!!muse2ps: C^@{COM}^i2I150v85,150Q16
